;FLAVOR:RepRap
;TIME:1511
;Filament used: 1.36066m
;Layer height: 0.2
;Generated with Cura_SteamEngine 2.6.2
M190 S100
M104 S200
M109 S200
G28 ;Home
G1 Z15.0 F6000 ;Move the platform down 15mm
;Prime the extruder
G92 E0
G1 F200 E3
G92 E0
;LAYER_COUNT:182
;LAYER:0
M107
G0 F3600 X80.123 Y86.199 Z0.3
;TYPE:SKIRT
G1 F1800 X80.722 Y85.684 E0.03941
G1 X81.37 Y85.233 E0.0788
G1 X82.061 Y84.849 E0.11824
G1 X82.786 Y84.537 E0.15762
G1 X83.539 Y84.3 E0.197
G1 X84.313 Y84.141 E0.23642
G1 X85.098 Y84.06 E0.27579
G1 X85.5 Y84.05 E0.29586
G1 X114.5 Y84.05 E1.74267
G1 X115.289 Y84.09 E1.78209
G1 X116.069 Y84.209 E1.82145
G1 X116.834 Y84.407 E1.86087
G1 X117.574 Y84.681 E1.90024
G1 X118.283 Y85.029 E1.93965
G1 X118.954 Y85.447 E1.97909
G1 X119.578 Y85.93 E2.01845
G1 X120.151 Y86.473 E2.05784
G1 X120.666 Y87.072 E2.09725
G1 X121.117 Y87.72 E2.13664
G1 X121.501 Y88.411 E2.17608
G1 X121.813 Y89.136 E2.21545
G1 X122.05 Y89.889 E2.25484
G1 X122.209 Y90.663 E2.29426
G1 X122.29 Y91.448 E2.33363
G1 X122.3 Y91.85 E2.35369
G1 X122.3 Y108.15 E3.1669
G1 X122.26 Y108.939 E3.20632
G1 X122.141 Y109.719 E3.24568
G1 X121.943 Y110.484 E3.28511
G1 X121.669 Y111.224 E3.32447
G1 X121.321 Y111.933 E3.36388
G1 X120.903 Y112.604 E3.40332
G1 X120.42 Y113.228 E3.44269
G1 X119.877 Y113.801 E3.48207
G1 X119.278 Y114.316 E3.52148
G1 X118.63 Y114.767 E3.56087
G1 X117.939 Y115.151 E3.60031
G1 X117.214 Y115.463 E3.63969
G1 X116.461 Y115.7 E3.67907
G1 X115.687 Y115.859 E3.71849
G1 X114.902 Y115.94 E3.75786
G1 X114.5 Y115.95 E3.77793
G1 X85.5 Y115.95 E5.22474
G1 X84.711 Y115.91 E5.26416
G1 X83.931 Y115.791 E5.30352
G1 X83.166 Y115.593 E5.34294
G1 X82.426 Y115.319 E5.38231
G1 X81.717 Y114.971 E5.42172
G1 X81.046 Y114.553 E5.46116
G1 X80.422 Y114.07 E5.50052
G1 X79.849 Y113.527 E5.53991
G1 X79.334 Y112.928 E5.57932
G1 X78.883 Y112.28 E5.61871
G1 X78.499 Y111.589 E5.65815
G1 X78.187 Y110.864 E5.69752
G1 X77.95 Y110.111 E5.73691
G1 X77.791 Y109.337 E5.77633
G1 X77.71 Y108.552 E5.8157
G1 X77.7 Y108.15 E5.83576
G1 X77.7 Y91.85 E6.64897
G1 X77.74 Y91.061 E6.68839
G1 X77.859 Y90.281 E6.72775
G1 X78.057 Y89.516 E6.76718
G1 X78.331 Y88.776 E6.80654
G1 X78.679 Y88.067 E6.84595
G1 X79.097 Y87.396 E6.88539
G1 X79.58 Y86.772 E6.92476
G1 X80.123 Y86.199 E6.96414
G0 F3600 X80.516 Y86.38
G1 F1800 X81.111 Y85.892 E7.00253
G1 X81.753 Y85.469 E7.04089
G1 X82.436 Y85.114 E7.07929
G1 X83.151 Y84.833 E7.11762
G1 X83.893 Y84.627 E7.15604
G1 X84.651 Y84.499 E7.19439
G1 X85.5 Y84.45 E7.23682
G1 X114.5 Y84.45 E8.68363
G1 X115.268 Y84.49 E8.722
G1 X116.028 Y84.609 E8.76038
G1 X116.771 Y84.807 E8.79874
G1 X117.49 Y85.081 E8.83713
G1 X118.176 Y85.428 E8.87548
G1 X118.823 Y85.844 E8.91386
G1 X119.423 Y86.325 E8.95222
G1 X119.97 Y86.866 E8.99061
G1 X120.458 Y87.461 E9.029
G1 X120.881 Y88.103 E9.06736
G1 X121.236 Y88.786 E9.10576
G1 X121.517 Y89.501 E9.14409
G1 X121.723 Y90.243 E9.1825
G1 X121.851 Y91.001 E9.22086
G1 X121.9 Y91.85 E9.26328
G1 X121.9 Y108.15 E10.07649
G1 X121.86 Y108.918 E10.11486
G1 X121.741 Y109.678 E10.15324
G1 X121.543 Y110.421 E10.1916
G1 X121.269 Y111.14 E10.22999
G1 X120.922 Y111.826 E10.26834
G1 X120.506 Y112.473 E10.30672
G1 X120.025 Y113.073 E10.34509
G1 X119.484 Y113.62 E10.38347
G1 X118.889 Y114.108 E10.42186
G1 X118.247 Y114.531 E10.46022
G1 X117.564 Y114.886 E10.49862
G1 X116.849 Y115.167 E10.53695
G1 X116.107 Y115.373 E10.57537
G1 X115.349 Y115.501 E10.61372
G1 X114.5 Y115.55 E10.65614
G1 X85.5 Y115.55 E12.10296
G1 X84.732 Y115.51 E12.14133
G1 X83.972 Y115.391 E12.17971
G1 X83.229 Y115.193 E12.21807
G1 X82.51 Y114.919 E12.25646
G1 X81.824 Y114.572 E12.29481
G1 X81.177 Y114.156 E12.33319
G1 X80.577 Y113.675 E12.37155
G1 X80.03 Y113.134 E12.40993
G1 X79.542 Y112.539 E12.44833
G1 X79.119 Y111.897 E12.48668
G1 X78.764 Y111.214 E12.52509
G1 X78.483 Y110.499 E12.56341
G1 X78.277 Y109.757 E12.60183
G1 X78.149 Y108.999 E12.64018
G1 X78.1 Y108.15 E12.68261
G1 X78.1 Y91.85 E13.49582
G1 X78.14 Y91.082 E13.53419
G1 X78.259 Y90.322 E13.57257
G1 X78.457 Y89.579 E13.61093
G1 X78.731 Y88.86 E13.64932
G1 X79.078 Y88.174 E13.68767
G1 X79.494 Y87.527 E13.72605
G1 X79.975 Y86.927 E13.76441
G1 X80.516 Y86.38 E13.8028
G0 F3600 X80.908 Y86.566
G1 F1800 X81.498 Y86.107 E13.84009
G1 X82.134 Y85.712 E13.87744
G1 X82.808 Y85.388 E13.91475
G1 X83.513 Y85.138 E13.95207
G1 X84.241 Y84.964 E13.98941
G1 X84.983 Y84.869 E14.02673
G1 X85.5 Y84.85 E14.05254
G1 X114.5 Y84.85 E15.49936
G1 X115.247 Y84.89 E15.53668
G1 X115.985 Y85.009 E15.57397
G1 X116.707 Y85.207 E15.61133
G1 X117.403 Y85.48 E15.64862
G1 X118.066 Y85.827 E15.68596
G1 X118.689 Y86.242 E15.7233
G1 X119.263 Y86.721 E15.7606
G1 X119.784 Y87.258 E15.79793
G1 X120.243 Y87.848 E15.83522
G1 X120.638 Y88.484 E15.87258
G1 X120.962 Y89.158 E15.90989
G1 X121.212 Y89.863 E15.9472
G1 X121.386 Y90.591 E15.98455
G1 X121.481 Y91.333 E16.02187
G1 X121.5 Y91.85 E16.04768
G1 X121.5 Y108.15 E16.86089
G1 X121.46 Y108.897 E16.89821
G1 X121.341 Y109.635 E16.93551
G1 X121.143 Y110.357 E16.97286
G1 X120.87 Y111.053 E17.01016
G1 X120.523 Y111.716 E17.04749
G1 X120.108 Y112.339 E17.08484
G1 X119.629 Y112.913 E17.12213
G1 X119.092 Y113.434 E17.15946
G1 X118.502 Y113.893 E17.19676
G1 X117.866 Y114.288 E17.23411
G1 X117.192 Y114.612 E17.27142
G1 X116.487 Y114.862 E17.30873
G1 X115.759 Y115.036 E17.34608
G1 X115.017 Y115.131 E17.3834
G1 X114.5 Y115.15 E17.40921
G1 X85.5 Y115.15 E18.85603
G1 X84.753 Y115.11 E18.89335
G1 X84.015 Y114.991 E18.93064
G1 X83.293 Y114.793 E18.96799
G1 X82.597 Y114.52 E19.00529
G1 X81.934 Y114.173 E19.04262
G1 X81.311 Y113.758 E19.07997
G1 X80.737 Y113.279 E19.11727
G1 X80.216 Y112.742 E19.1546
G1 X79.757 Y112.152 E19.19189
G1 X79.362 Y111.516 E19.22924
G1 X79.038 Y110.842 E19.26655
G1 X78.788 Y110.137 E19.30387
G1 X78.614 Y109.409 E19.34121
G1 X78.519 Y108.667 E19.37853
G1 X78.5 Y108.15 E19.40435
G1 X78.5 Y91.85 E20.21756
G1 X78.54 Y91.103 E20.25488
G1 X78.659 Y90.365 E20.29217
G1 X78.857 Y89.643 E20.32952
G1 X79.13 Y88.947 E20.36682
G1 X79.477 Y88.284 E20.40416
G1 X79.892 Y87.661 E20.4415
G1 X80.371 Y87.087 E20.4788
G1 X80.908 Y86.566 E20.51613
G0 F3600 X81.299 Y86.759
G1 F1800 X81.884 Y86.329 E20.55235
G1 X82.513 Y85.965 E20.58861
G1 X83.178 Y85.672 E20.62486
G1 X83.871 Y85.454 E20.66111
G1 X84.583 Y85.314 E20.69731
G1 X85.5 Y85.25 E20.74317
G1 X114.5 Y85.25 E22.18998
G1 X115.225 Y85.29 E22.22621
G1 X115.942 Y85.409 E22.26247
G1 X116.641 Y85.607 E22.29871
G1 X117.314 Y85.88 E22.33495
G1 X117.953 Y86.225 E22.37118
G1 X118.55 Y86.639 E22.40742
G1 X119.098 Y87.115 E22.44364
G1 X119.591 Y87.649 E22.4799
G1 X120.021 Y88.234 E22.51612
G1 X120.385 Y88.863 E22.55237
G1 X120.678 Y89.528 E22.58863
G1 X120.896 Y90.221 E22.62487
G1 X121.036 Y90.933 E22.66108
G1 X121.1 Y91.85 E22.70694
G1 X121.1 Y108.15 E23.52015
G1 X121.06 Y108.875 E23.55637
G1 X120.941 Y109.592 E23.59263
G1 X120.743 Y110.291 E23.62888
G1 X120.47 Y110.964 E23.66511
G1 X120.125 Y111.603 E23.70134
G1 X119.711 Y112.2 E23.73759
G1 X119.235 Y112.748 E23.7738
G1 X118.701 Y113.241 E23.81006
G1 X118.116 Y113.671 E23.84628
G1 X117.487 Y114.035 E23.88254
G1 X116.822 Y114.328 E23.91879
G1 X116.129 Y114.546 E23.95504
G1 X115.417 Y114.686 E23.99124
G1 X114.5 Y114.75 E24.0371
G1 X85.5 Y114.75 E25.48391
G1 X84.775 Y114.71 E25.52014
G1 X84.058 Y114.591 E25.5564
G1 X83.359 Y114.393 E25.59265
G1 X82.686 Y114.12 E25.62888
G1 X82.047 Y113.775 E25.66511
G1 X81.45 Y113.361 E25.70135
G1 X80.902 Y112.885 E25.73757
G1 X80.409 Y112.351 E25.77383
G1 X79.979 Y111.766 E25.81005
G1 X79.615 Y111.137 E25.84631
G1 X79.322 Y110.472 E25.88256
G1 X79.104 Y109.779 E25.9188
G1 X78.964 Y109.067 E25.95501
G1 X78.9 Y108.15 E26.00087
G1 X78.9 Y91.85 E26.81408
G1 X78.94 Y91.125 E26.8503
G1 X79.059 Y90.408 E26.88656
G1 X79.257 Y89.709 E26.92281
G1 X79.53 Y89.036 E26.95904
G1 X79.875 Y88.397 E26.99527
G1 X80.289 Y87.8 E27.03152
G1 X80.765 Y87.252 E27.06773
G1 X81.299 Y86.759 E27.10399
G0 F3600 X81.689 Y86.959
G1 F1800 X82.268 Y86.559 E27.1391
G1 X82.889 Y86.227 E27.17423
G1 X83.543 Y85.967 E27.20934
G1 X84.223 Y85.783 E27.24449
G1 X84.919 Y85.677 E27.27961
G1 X85.5 Y85.65 E27.30863
G1 X114.5 Y85.65 E28.75545
G1 X115.203 Y85.69 E28.79057
G1 X115.897 Y85.809 E28.8257
G1 X116.572 Y86.007 E28.8608
G1 X117.221 Y86.279 E28.89591
G1 X117.835 Y86.624 E28.93104
G1 X118.406 Y87.035 E28.96614
G1 X118.927 Y87.509 E29.00128
G1 X119.391 Y88.039 E29.03643
G1 X119.791 Y88.618 E29.07154
G1 X120.123 Y89.239 E29.10667
G1 X120.383 Y89.893 E29.14178
G1 X120.567 Y90.573 E29.17692
G1 X120.673 Y91.269 E29.21205
G1 X120.7 Y91.85 E29.24107
G1 X120.7 Y108.15 E30.05428
G1 X120.66 Y108.853 E30.08941
G1 X120.541 Y109.547 E30.12454
G1 X120.343 Y110.222 E30.15963
G1 X120.071 Y110.871 E30.19474
G1 X119.726 Y111.485 E30.22987
G1 X119.315 Y112.056 E30.26497
G1 X118.841 Y112.577 E30.30011
G1 X118.311 Y113.041 E30.33526
G1 X117.732 Y113.441 E30.37037
G1 X117.111 Y113.773 E30.4055
G1 X116.457 Y114.033 E30.44061
G1 X115.777 Y114.217 E30.47576
G1 X115.081 Y114.323 E30.51088
G1 X114.5 Y114.35 E30.5399
G1 X85.5 Y114.35 E31.98671
G1 X84.797 Y114.31 E32.02184
G1 X84.103 Y114.191 E32.05697
G1 X83.428 Y113.993 E32.09207
G1 X82.779 Y113.721 E32.12717
G1 X82.165 Y113.376 E32.16231
G1 X81.594 Y112.965 E32.19741
G1 X81.073 Y112.491 E32.23255
G1 X80.609 Y111.961 E32.26769
G1 X80.209 Y111.382 E32.3028
G1 X79.877 Y110.761 E32.33794
G1 X79.617 Y110.107 E32.37305
G1 X79.433 Y109.427 E32.40819
G1 X79.327 Y108.731 E32.44332
G1 X79.3 Y108.15 E32.47233
G1 X79.3 Y91.85 E33.28554
G1 X79.34 Y91.147 E33.32067
G1 X79.459 Y90.453 E33.3558
G1 X79.657 Y89.778 E33.3909
G1 X79.929 Y89.129 E33.42601
G1 X80.274 Y88.515 E33.46114
G1 X80.685 Y87.944 E33.49624
G1 X81.159 Y87.423 E33.53138
G1 X81.689 Y86.959 E33.56653
G0 F3600 X82.078 Y87.167
G1 F1800 X82.65 Y86.798 E33.60049
G1 X83.262 Y86.499 E33.63447
G1 X83.904 Y86.274 E33.66841
G1 X84.569 Y86.125 E33.70241
G1 X85.5 Y86.05 E33.74901
G1 X114.5 Y86.05 E35.19582
G1 X115.18 Y86.09 E35.22981
G1 X115.85 Y86.209 E35.26375
G1 X116.502 Y86.406 E35.29774
G1 X117.126 Y86.678 E35.3317
G1 X117.714 Y87.022 E35.36568
G1 X118.258 Y87.432 E35.39967
G1 X118.749 Y87.903 E35.43361
G1 X119.183 Y88.428 E35.4676
G1 X119.552 Y89 E35.50156
G1 X119.851 Y89.612 E35.53554
G1 X120.076 Y90.254 E35.56948
G1 X120.225 Y90.919 E35.60348
G1 X120.3 Y91.85 E35.65008
G1 X120.3 Y108.15 E36.46329
G1 X120.26 Y108.83 E36.49727
G1 X120.141 Y109.5 E36.53122
G1 X119.944 Y110.152 E36.5652
G1 X119.672 Y110.776 E36.59916
G1 X119.328 Y111.364 E36.63315
G1 X118.918 Y111.908 E36.66713
G1 X118.447 Y112.399 E36.70108
G1 X117.922 Y112.833 E36.73506
G1 X117.35 Y113.202 E36.76902
G1 X116.738 Y113.501 E36.803
G1 X116.096 Y113.726 E36.83694
G1 X115.431 Y113.875 E36.87094
G1 X114.5 Y113.95 E36.91754
G1 X85.5 Y113.95 E38.36436
G1 X84.82 Y113.91 E38.39834
G1 X84.15 Y113.791 E38.43229
G1 X83.498 Y113.594 E38.46627
G1 X82.874 Y113.322 E38.50023
G1 X82.286 Y112.978 E38.53422
G1 X81.742 Y112.568 E38.5682
G1 X81.251 Y112.097 E38.60215
G1 X80.817 Y111.572 E38.63613
G1 X80.448 Y111 E38.67009
G1 X80.149 Y110.388 E38.70407
G1 X79.924 Y109.746 E38.73801
G1 X79.775 Y109.081 E38.77201
G1 X79.7 Y108.15 E38.81861
G1 X79.7 Y91.85 E39.63182
G1 X79.74 Y91.17 E39.6658
G1 X79.859 Y90.5 E39.69975
G1 X80.056 Y89.848 E39.73373
G1 X80.328 Y89.224 E39.7677
G1 X80.672 Y88.636 E39.80168
G1 X81.082 Y88.092 E39.83567
G1 X81.553 Y87.601 E39.86961
G1 X82.078 Y87.167 E39.9036
G0 F3600 X82.465 Y87.384
G1 F1800 X83.029 Y87.048 E39.93635
G1 X83.631 Y86.784 E39.96914
G1 X84.26 Y86.594 E40.00192
G1 X84.907 Y86.483 E40.03467
G1 X85.5 Y86.45 E40.06431
G1 X114.5 Y86.45 E41.51112
G1 X115.156 Y86.49 E41.54391
G1 X115.802 Y86.609 E41.57668
G1 X116.429 Y86.806 E41.60947
G1 X117.027 Y87.078 E41.64225
G1 X117.588 Y87.42 E41.67503
G1 X118.103 Y87.828 E41.7078
G1 X118.565 Y88.295 E41.74058
G1 X118.966 Y88.815 E41.77334
G1 X119.302 Y89.379 E41.80609
G1 X119.566 Y89.981 E41.83889
G1 X119.756 Y90.61 E41.87167
G1 X119.867 Y91.257 E41.90442
G1 X119.9 Y91.85 E41.93405
G1 X119.9 Y108.15 E42.74726
G1 X119.86 Y108.806 E42.78005
G1 X119.741 Y109.452 E42.81282
G1 X119.544 Y110.079 E42.84561
G1 X119.272 Y110.677 E42.87838
G1 X118.93 Y111.238 E42.91116
G1 X118.522 Y111.753 E42.94394
G1 X118.055 Y112.215 E42.97672
G1 X117.535 Y112.616 E43.00948
G1 X116.971 Y112.952 E43.04223
G1 X116.369 Y113.216 E43.07502
G1 X115.74 Y113.406 E43.10781
G1 X115.093 Y113.517 E43.14056
G1 X114.5 Y113.55 E43.17019
G1 X85.5 Y113.55 E44.617
G1 X84.844 Y113.51 E44.64979
G1 X84.198 Y113.391 E44.68256
G1 X83.571 Y113.194 E44.71535
G1 X82.973 Y112.922 E44.74813
G1 X82.412 Y112.58 E44.78091
G1 X81.897 Y112.172 E44.81369
G1 X81.435 Y111.705 E44.84646
G1 X81.034 Y111.185 E44.87922
G1 X80.698 Y110.621 E44.91197
G1 X80.434 Y110.019 E44.94477
G1 X80.244 Y109.39 E44.97755
G1 X80.133 Y108.743 E45.0103
G1 X80.1 Y108.15 E45.03993
G1 X80.1 Y91.85 E45.85314
G1 X80.14 Y91.194 E45.88593
G1 X80.259 Y90.548 E45.9187
G1 X80.456 Y89.921 E45.95149
G1 X80.728 Y89.323 E45.98427
G1 X81.07 Y88.762 E46.01705
G1 X81.478 Y88.247 E46.04982
G1 X81.945 Y87.785 E46.0826
G1 X82.465 Y87.384 E46.11536
G0 F3600 X82.85 Y87.61
G1 F1800 X83.406 Y87.31 E46.14688
G1 X83.995 Y87.082 E46.17839
G1 X84.609 Y86.93 E46.20995
G1 X85.5 Y86.85 E46.25458
G1 X114.5 Y86.85 E47.70139
G1 X115.131 Y86.89 E47.73294
G1 X115.752 Y87.009 E47.76448
G1 X116.352 Y87.206 E47.79599
G1 X116.924 Y87.477 E47.82757
G1 X117.456 Y87.817 E47.85907
G1 X117.941 Y88.223 E47.89062
G1 X118.371 Y88.686 E47.92215
G1 X118.74 Y89.2 E47.95371
G1 X119.04 Y89.756 E47.98523
G1 X119.268 Y90.345 E48.01674
G1 X119.42 Y90.959 E48.0483
G1 X119.5 Y91.85 E48.09293
G1 X119.5 Y108.15 E48.90614
G1 X119.46 Y108.781 E48.93768
G1 X119.341 Y109.402 E48.96923
G1 X119.144 Y110.002 E49.00074
G1 X118.873 Y110.574 E49.03231
G1 X118.533 Y111.106 E49.06381
G1 X118.127 Y111.591 E49.09537
G1 X117.664 Y112.021 E49.12689
G1 X117.15 Y112.39 E49.15846
G1 X116.594 Y112.69 E49.18998
G1 X116.005 Y112.918 E49.22149
G1 X115.391 Y113.07 E49.25305
G1 X114.5 Y113.15 E49.29768
G1 X85.5 Y113.15 E50.74449
G1 X84.869 Y113.11 E50.77604
G1 X84.248 Y112.991 E50.80758
G1 X83.648 Y112.794 E50.83909
G1 X83.076 Y112.523 E50.87067
G1 X82.544 Y112.183 E50.90217
G1 X82.059 Y111.777 E50.93372
G1 X81.629 Y111.314 E50.96525
G1 X81.26 Y110.8 E50.99682
G1 X80.96 Y110.244 E51.02833
G1 X80.732 Y109.655 E51.05984
G1 X80.58 Y109.041 E51.0914
G1 X80.5 Y108.15 E51.13603
G1 X80.5 Y91.85 E51.94924
G1 X80.54 Y91.219 E51.98079
G1 X80.659 Y90.598 E52.01233
G1 X80.856 Y89.998 E52.04384
G1 X81.127 Y89.426 E52.07542
G1 X81.467 Y88.894 E52.10692
G1 X81.873 Y88.409 E52.13847
G1 X82.336 Y87.979 E52.17
G1 X82.85 Y87.61 E52.20156
G0 F3600 X83.232 Y87.848
G1 F1800 X83.778 Y87.584 E52.23182
G1 X84.354 Y87.395 E52.26206
G1 X84.95 Y87.283 E52.29232
G1 X85.5 Y87.25 E52.31981
G1 X114.5 Y87.25 E53.76662
G1 X115.105 Y87.29 E53.79687
G1 X115.699 Y87.409 E53.8271
G1 X116.273 Y87.605 E53.85736
G1 X116.816 Y87.876 E53.88763
G1 X117.319 Y88.215 E53.9179
G1 X117.772 Y88.617 E53.94811
G1 X118.169 Y89.075 E53.97835
G1 X118.502 Y89.582 E54.00861
G1 X118.766 Y90.128 E54.03887
G1 X118.955 Y90.704 E54.06912
G1 X119.067 Y91.3 E54.09937
G1 X119.1 Y91.85 E54.12686
G1 X119.1 Y108.15 E54.94007
G1 X119.06 Y108.755 E54.97032
G1 X118.941 Y109.349 E55.00054
G1 X118.745 Y109.923 E55.0308
G1 X118.474 Y110.466 E55.06108
G1 X118.135 Y110.969 E55.09134
G1 X117.733 Y111.422 E55.12156
G1 X117.275 Y111.819 E55.1518
G1 X116.768 Y112.152 E55.18206
G1 X116.222 Y112.416 E55.21232
G1 X115.646 Y112.605 E55.24256
G1 X115.05 Y112.717 E55.27282
G1 X114.5 Y112.75 E55.30031
G1 X85.5 Y112.75 E56.74712
G1 X84.895 Y112.71 E56.77737
G1 X84.301 Y112.591 E56.80759
G1 X83.727 Y112.395 E56.83785
G1 X83.184 Y112.124 E56.86813
G1 X82.681 Y111.785 E56.89839
G1 X82.228 Y111.383 E56.92861
G1 X81.831 Y110.925 E56.95885
G1 X81.498 Y110.418 E56.98911
G1 X81.234 Y109.872 E57.01937
G1 X81.045 Y109.296 E57.04961
G1 X80.933 Y108.7 E57.07987
G1 X80.9 Y108.15 E57.10736
G1 X80.9 Y91.85 E57.92057
G1 X80.94 Y91.245 E57.95082
G1 X81.059 Y90.651 E57.98104
G1 X81.255 Y90.077 E58.0113
G1 X81.526 Y89.534 E58.04158
G1 X81.865 Y89.031 E58.07184
G1 X82.267 Y88.578 E58.10206
G1 X82.725 Y88.181 E58.13229
